X:1
T:[ID 2-6]
T:[ID 2-6]
T:Bezeichnung standardisiert: Menuett Menuet 1. ex G. #. \"Ahnlich in dieser Quelle: ID 7-67;
T:Urheber unbekannt Erstbeleg: 1767 (Datum in der schriftlichen Quelle) Datum in der hier transkribierten schriftlichen Quelle: 1776 - 1791
C:Urheber unbekannt
C:Erstbeleg: 1767 (Datum in der schriftlichen Quelle)
C:Datum in der hier transkribierten schriftlichen Quelle: 1776 - 1791
L:1/8
M:3/4
K:G
V:1 treble 
V:1
 G4 BG | g2 g2 f2 | D4 FD | c2 c2 BA | G4 BG | g2 g2 (3efg | fe d2 T^c2 | d6 :: DE D2 d2 | %9
 d2 cB c2 | DE D2 c2 | c2 BA B2 | G,2 B,G,B,D | G2 BGBd | (3edc B2 cA | A4 G2 :| %16

